X: 47
T: No_52_Daybreak_Song_of_Peyote_Ceremony.krn
N: Derived from No_52_Daybreak_Song_of_Peyote_Ceremony.krn
%%abc-version 2.0
%%abcx-abcm2ps-target-version 5.9.1 (29 Sep 2008)
%%abc-creator hum2abc beta
%%abcx-conversion-date 2019/03/15 08:27:55
%%humdrum-veritas 3825199312
%%humdrum-veritas-data 4133840966
%%linebreak <none>
%%barnumbers 0
L: 1/8
M: 2/4
K: E clef=bass
[K:clef=bass][M:2/4]z2E,3/E/ | 
E/E3/ EE | 
E2(B,/G,/) z/ E/ | 
E/E3/ EE | 
E2C/C3/ | 
C/C3/ CC | 
C2G,3/E/ | 
E/E3/ EE | 
E2z3/ F/ | 
E/E3/ EE | 
E2C3/B,/ | 
[M:3/4]B,B, B,C B, z | 
[M:2/4]CC CC [I:setbarnb 14]| 
CC EC | 
CC C z | 
CC CC | 
CC EC | 
CC CC | 
CC/C/ CF,/F,/ | 
F,F,F,2 | 
F,F, F,E, | 
[M:3/4]E,E, E,E, E, z | 
E,2E,2E,2 | 
E,2z2C2 :|]  
E,2z4 |]  



